svgs/sharp-regular/user-helmet-safety.svg

<svg xmlns="http://www.w3.org/2000/svg" viewBox="0 0 448 512"><!--! Font Awesome Pro 6.6.0 by @fontawesome - https://fontawesome.com License - https://fontawesome.com/license (Commercial License) Copyright 2024 Fonticons, Inc. --><path d="M256 0L192 0l0 80L163.6 23.1C125.6 43.5 99 82.6 96.2 128l-.2 0-24 0 0 48 24 0 256 0 24 0 0-48-24 0-.2 0C349 82.6 322.4 43.5 284.4 23.1L256 80l0-80zM162 304c18.4 10.2 39.5 16 62 16s43.6-5.8 62-16c34.9-19.4 59.8-54.6 65-96l-48.6 0c-7.4 36.5-39.7 64-78.4 64s-71-27.5-78.4-64L97 208c5.2 41.4 30.1 76.6 65 96zm-11.4 48L48 352 14.4 464 0 512l50.1 0 347.8 0 50.1 0-14.4-48L400 352l-102.6 0L224 352l-73.4 0zM83.7 400l280.6 0 19.2 64-319 0 19.2-64z"/></svg>

<svg xmlns="http://www.w3.org/2000/svg" viewBox="0 0 448 512"><!--! Font Awesome Pro 6.5.2 by @fontawesome - https://fontawesome.com License - https://fontawesome.com/license (Commercial License) Copyright 2024 Fonticons, Inc. --><path d="M256 0H192V80L163.6 23.1C125.6 43.5 99 82.6 96.2 128H96 72v48H96 352h24V128H352h-.2C349 82.6 322.4 43.5 284.4 23.1L256 80V0zM162 304c18.4 10.2 39.5 16 62 16s43.6-5.8 62-16c34.9-19.4 59.8-54.6 65-96H302.4c-7.4 36.5-39.7 64-78.4 64s-71-27.5-78.4-64H97c5.2 41.4 30.1 76.6 65 96zm-11.4 48H48L14.4 464 0 512H50.1 397.9 448l-14.4-48L400 352H297.4 224 150.6zM83.7 400H364.3l19.2 64H64.5l19.2-64z"/></svg>
